X: 22259
T: La Luna Schottische
R: barndance
M: 4/4
K: Eminor
B2 BA Bc dB|c2 e2 A2 Bc|d2 G2 G2 AB|cB AG A2 GA|
B2 BA Bc dB|cd ec A2 Bc|d2 GA BA GF|G8:|
e2 ed ef ge|fg fe d2 BB|cd ec d2 BB|c2 ^c2 d4|
e2 ed ef ge|fg fe d2 BB|cd ec d2 GA|BA GF G4:|

